src/4-icons/clock.svg

<svg width="260" height="260" viewBox="0 0 260 260" fill="none" xmlns="http://www.w3.org/2000/svg"><path d="M122 136.398c0-.066.001-.133.003-.199A6.553 6.553 0 0 1 122 136V70a7 7 0 1 1 14 0v59.398h59a7 7 0 1 1 0 14h-66a7 7 0 0 1-7-7Z" fill="#000"/><path fill-rule="evenodd" clip-rule="evenodd" d="M0 130c0 71.797 58.203 130 130 130s130-58.203 130-130S201.797 0 130 0 0 58.203 0 130Zm14 0c0 64.065 51.935 116 116 116s116-51.935 116-116S194.065 14 130 14 14 65.935 14 130Z" fill="#000"/></svg>

<svg width="260" height="260" viewBox="0 0 260 260" fill="none" xmlns="http://www.w3.org/2000/svg">
<path d="M122 136.398C122 136.332 122.001 136.265 122.003 136.199C122.001 136.133 122 136.067 122 136V70C122 66.134 125.134 63 129 63C132.866 63 136 66.134 136 70V129.398H195C198.866 129.398 202 132.532 202 136.398C202 140.264 198.866 143.398 195 143.398H129C125.134 143.398 122 140.264 122 136.398Z" fill="black"/>
<path fill-rule="evenodd" clip-rule="evenodd" d="M0 130C0 201.797 58.203 260 130 260C201.797 260 260 201.797 260 130C260 58.203 201.797 0 130 0C58.203 0 0 58.203 0 130ZM14 130C14 194.065 65.935 246 130 246C194.065 246 246 194.065 246 130C246 65.935 194.065 14 130 14C65.935 14 14 65.935 14 130Z" fill="black"/>
</svg>
